img/avatar-5.svg

<svg xmlns="http://www.w3.org/2000/svg" preserveAspectRatio="xMidYMid" width="33.625" height="33.656"><circle cx="16.813" cy="16.828" r="16.813" fill="#cdc102"/><path d="M13.974 25.206c.162-.046.166-.112.119-.234-.1-.285-.188-.578-.273-.866-.023-.081-.084-.169-.05-.25.139-.285.293-.57.466-.897.173.612.338 1.155.485 1.708.057.22.169.255.369.193.369-.119.734-.235 1.112-.343.157-.042.165-.111.123-.253-.335-1.016-.654-2.035-.989-3.059-.042-.115-.046-.208.019-.315.204-.37.4-.758.597-1.135.072-.143.123-.085.177.007.15.251.3.501.438.735.104.166.2.162.3-.011.096-.17.177-.354.273-.523.054-.104.116-.139.196 0 .193.334.393.669.589 1.008.05.103.108.219.058.357-.15.45-.296.901-.439 1.351-.177.534-.338 1.061-.5 1.592-.031.081-.054.15.065.181.412.119.824.262 1.231.385.074.023.154.031.185-.085.039-.146.089-.284.139-.434.154-.427.25-.893.442-1.32.2.204.281.473.446.681.128.177.108.331.054.508-.077.242-.123.48-.207.715-.074.192.015.292.192.354.281.081.558.154.823.25.319.108.312.12.366-.223.107-.227.177-.477.242-.719.035-.123.054-.262.269-.158.254.115.539.177.808.289.135.053.177.007.208-.124.088-.373.169-.746.269-1.127.031-.154-.027-.207-.153-.242-.316-.096-.635-.185-.955-.285-.058-.023-.138-.035-.169-.069-.158-.273-.312-.547-.473-.812.096-.069.169-.038.234-.015.516.115 1.012.25 1.52.384.162.05.242.054.277-.146.058-.338.139-.665.242-.996.07-.208.016-.308-.207-.335-.131-.007-.27-.042-.397-.073-.034-.012-.076-.034-.107-.046-.854-.208-1.705-.419-2.562-.623-.096-.023-.174-.069-.224-.15-.231-.366-.453-.735-.68-1.097-.097-.146-.028-.173.107-.169.227 0 .446-.004.666-.012.154 0 .204-.077.115-.215-.115-.185-.231-.373-.342-.566-.081-.123-.085-.192.104-.188.485.004.965.004 1.439.004.103 0 .153.046.203.108.231.246.466.492.7.73.451.481.912.962 1.374 1.447.1.104.181.158.316.031.277-.266.565-.516.842-.778.104-.088.092-.176 0-.277-.4-.399-.789-.8-1.181-1.207l-.004-.008c.146-.066.315-.016.469-.046.066 0 .131.011.193.008.261-.028.481.022.65.246.134.177.312.311.469.465.104.108.193.115.304.015.27-.199.5-.449.758-.661.146-.127.115-.227-.007-.346-.212-.193-.412-.412-.624-.589-.15-.127-.131-.219 0-.342.2-.181.377-.381.577-.558.127-.112.127-.185.012-.289-.266-.238-.535-.484-.789-.723-.111-.115-.189-.088-.277.011-.185.197-.385.381-.55.593-.135.162-.277.258-.504.227-.189-.016-.373.012-.566.016-.057.007-.127.03-.157-.028-.024-.073.05-.092.084-.138.366-.412.724-.835 1.105-1.243.111-.115.08-.181-.012-.269-.296-.261-.573-.516-.846-.773-.131-.135-.231-.154-.37.004-.608.684-1.246 1.354-1.846 2.054-.246.292-.508.477-.897.435-.3-.008-.6-.012-.9-.012-.146 0-.166-.046-.088-.169.111-.2.211-.4.331-.6.057-.1.03-.146-.085-.146-.227 0-.462 0-.693.003-.15 0-.211-.027-.104-.181.2-.338.389-.673.589-1.004.042-.081.085-.149.173-.177.169-.05.339-.1.508-.153.889-.258 1.781-.524 2.662-.789.119-.039.181-.104.146-.227-.111-.385-.211-.762-.319-1.147-.035-.138-.111-.184-.269-.138-.324.077-.651.173-.981.246-.231.046-.435.169-.685.143l.004-.008h-.004c.2-.431.392-.866.946-.947.177-.03.346-.107.527-.157.116-.035.166-.104.131-.235-.1-.373-.2-.754-.292-1.127-.027-.085-.07-.139-.173-.1-.242.085-.497.1-.723.211-.193.066-.285-.015-.331-.204-.066-.223-.139-.434-.208-.657-.062-.197-.181-.289-.404-.208-.281.111-.577.2-.877.296-.181.058-.27.139-.15.342.061.12.1.266.119.405.034.231.223.465.146.684-.092.316-.265.612-.485.927-.196-.6-.384-1.158-.557-1.715-.062-.2-.151-.266-.343-.197-.342.139-.684.254-1.027.385-.131.046-.162.135-.123.269.323.966.639 1.943.965 2.913.043.146.07.257-.022.396-.139.231-.255.473-.389.712-.092.184-.193.369-.304.569-.169-.273-.319-.504-.462-.731-.146-.219-.184-.215-.319.008-.1.192-.188.404-.354.585-.181-.308-.323-.604-.512-.862-.196-.265-.196-.496-.107-.812.269-.877.465-1.781.723-2.666.077-.25-.008-.319-.208-.373-.362-.104-.723-.208-1.077-.316-.123-.038-.161.02-.181.108-.077.312-.154.6-.246.908-.077.269-.161.542-.262.854-.161-.25-.288-.465-.442-.665-.119-.151-.119-.297-.073-.462.073-.238.135-.485.211-.704.07-.208.016-.308-.203-.358-.351-.069-.689-.169-1.028-.285-.177-.054-.246.004-.284.17-.062.223-.146.438-.193.661-.031.196-.131.2-.284.162-.216-.065-.435-.115-.643-.169-.1-.031-.169-.027-.2.096-.085.381-.181.762-.273 1.15-.031.135.031.185.15.208.323.077.631.169.942.254.081.027.177.031.227.111.154.254.305.508.462.77-.096.03-.165-.008-.231-.023-.504-.135-1.004-.27-1.515-.408-.154-.042-.254-.016-.296.169-.078.358-.162.723-.262 1.085-.047.166.007.231.169.266 1.031.257 2.062.561 3.112.765.093.023.173.058.212.135.238.411.462.812.711 1.215.07.108.032.143-.072.143-.255 0-.508-.008-.77 0-.219.008-.25.073-.134.269.13.219.265.443.4.669-.458 0-.882-.007-1.305.004-.146.004-.234-.054-.342-.161-.731-.762-1.489-1.52-2.231-2.281-.104-.12-.192-.135-.316-.012-.242.235-.512.469-.765.712-.246.219-.235.265-.004.496.338.331.681.677 1.023 1.031.031.023.089.05.066.107-.02.054-.078.043-.12.043-.211.011-.419 0-.623.011-.157.012-.292-.038-.408-.154-.208-.211-.446-.407-.657-.623-.104-.103-.174-.107-.285-.015-.273.242-.55.481-.827.716-.12.1-.035.153.031.223.234.238.469.473.711.704.127.104.127.177.008.277-.25.234-.493.481-.747.711-.107.096-.123.181.008.285.254.208.519.4.75.623.174.162.285.112.401-.023.222-.231.438-.458.661-.685.05-.053.073-.123.165-.123h.962c-.438.454-.834.874-1.246 1.285-.143.135-.143.231.015.354.289.219.558.454.824.704.153.143.265.116.4-.034.727-.758 1.462-1.512 2.193-2.262.046-.054.092-.104.177-.104.503 0 .992-.008 1.5-.008.023 0 .062.008.062.046-.128.235-.247.462-.37.696-.065.135-.062.247.143.235.18 0 .365.042.546.031.192-.031.204.023.119.185-.192.334-.369.68-.554 1.019-.05.108-.119.15-.235.177-.469.116-.938.235-1.412.346-.527.131-1.061.262-1.592.397-.116.026-.269.05-.231.238.104.423.204.843.315 1.25.024.135.097.135.204.104.227-.069.458-.123.693-.192.35-.085.696-.166 1.115-.281-.184.331-.327.589-.48.846-.047.081-.128.101-.2.104-.327.035-.62.162-.928.227-.153.023-.196.104-.153.25.1.37.192.727.273 1.089.038.15.119.181.257.131.266-.077.535-.131.797-.22.173-.049.227.012.261.143.054.242.131.481.177.715.035.143.096.185.242.143.355-.104.708-.223 1.07-.312" fill="#fff" fill-rule="evenodd"/></svg>

<svg xmlns="http://www.w3.org/2000/svg" xmlns:xlink="http://www.w3.org/1999/xlink" preserveAspectRatio="xMidYMid" width="33.625" height="33.656" viewBox="0 0 33.625 33.656">
  <defs>
    <style>
      .cls-1 {
        fill: #cdc102;
      }

      .cls-2 {
        fill: #fff;
        fill-rule: evenodd;
      }
    </style>
  </defs>
  <g>
    <circle cx="16.813" cy="16.828" r="16.813" class="cls-1"/>
    <path d="M13.974,25.206 C14.136,25.160 14.140,25.094 14.093,24.972 C13.993,24.687 13.905,24.394 13.820,24.106 C13.797,24.025 13.736,23.937 13.770,23.856 C13.909,23.571 14.063,23.286 14.236,22.959 C14.409,23.571 14.574,24.114 14.721,24.667 C14.778,24.887 14.890,24.922 15.090,24.860 C15.459,24.741 15.824,24.625 16.202,24.517 C16.359,24.475 16.367,24.406 16.325,24.264 C15.990,23.248 15.671,22.229 15.336,21.205 C15.294,21.090 15.290,20.997 15.355,20.890 C15.559,20.520 15.755,20.132 15.952,19.755 C16.024,19.612 16.075,19.670 16.129,19.762 C16.279,20.013 16.429,20.263 16.567,20.497 C16.671,20.663 16.767,20.659 16.867,20.486 C16.963,20.316 17.044,20.132 17.140,19.963 C17.194,19.859 17.256,19.824 17.336,19.963 C17.529,20.297 17.729,20.632 17.925,20.971 C17.975,21.074 18.033,21.190 17.983,21.328 C17.833,21.778 17.687,22.229 17.544,22.679 C17.367,23.213 17.206,23.740 17.044,24.271 C17.013,24.352 16.990,24.421 17.109,24.452 C17.521,24.571 17.933,24.714 18.340,24.837 C18.414,24.860 18.494,24.868 18.525,24.752 C18.564,24.606 18.614,24.468 18.664,24.318 C18.818,23.891 18.914,23.425 19.106,22.998 C19.306,23.202 19.387,23.471 19.552,23.679 C19.680,23.856 19.660,24.010 19.606,24.187 C19.529,24.429 19.483,24.667 19.399,24.902 C19.325,25.094 19.414,25.194 19.591,25.256 C19.872,25.337 20.149,25.410 20.414,25.506 C20.733,25.614 20.726,25.626 20.780,25.283 C20.887,25.056 20.957,24.806 21.022,24.564 C21.057,24.441 21.076,24.302 21.291,24.406 C21.545,24.521 21.830,24.583 22.099,24.695 C22.234,24.748 22.276,24.702 22.307,24.571 C22.395,24.198 22.476,23.825 22.576,23.444 C22.607,23.290 22.549,23.237 22.423,23.202 C22.107,23.106 21.788,23.017 21.468,22.917 C21.410,22.894 21.330,22.882 21.299,22.848 C21.141,22.575 20.987,22.301 20.826,22.036 C20.922,21.967 20.995,21.998 21.060,22.021 C21.576,22.136 22.072,22.271 22.580,22.405 C22.742,22.455 22.822,22.459 22.857,22.259 C22.915,21.921 22.996,21.594 23.099,21.263 C23.169,21.055 23.115,20.955 22.892,20.928 C22.761,20.921 22.622,20.886 22.495,20.855 C22.461,20.843 22.419,20.821 22.388,20.809 C21.534,20.601 20.683,20.390 19.826,20.186 C19.730,20.163 19.652,20.117 19.602,20.036 C19.371,19.670 19.149,19.301 18.922,18.939 C18.825,18.793 18.894,18.766 19.029,18.770 C19.256,18.770 19.475,18.766 19.695,18.758 C19.849,18.758 19.899,18.681 19.810,18.543 C19.695,18.358 19.579,18.170 19.468,17.977 C19.387,17.854 19.383,17.785 19.572,17.789 C20.057,17.793 20.537,17.793 21.011,17.793 C21.114,17.793 21.164,17.839 21.214,17.901 C21.445,18.147 21.680,18.393 21.914,18.631 C22.365,19.112 22.826,19.593 23.288,20.078 C23.388,20.182 23.469,20.236 23.604,20.109 C23.881,19.843 24.169,19.593 24.446,19.331 C24.550,19.243 24.538,19.155 24.446,19.054 C24.046,18.655 23.657,18.254 23.265,17.847 L23.261,17.839 C23.407,17.773 23.576,17.823 23.730,17.793 C23.796,17.793 23.861,17.804 23.923,17.801 C24.184,17.773 24.404,17.823 24.573,18.047 C24.707,18.224 24.885,18.358 25.042,18.512 C25.146,18.620 25.235,18.627 25.346,18.527 C25.616,18.328 25.846,18.078 26.104,17.866 C26.250,17.739 26.219,17.639 26.097,17.520 C25.885,17.327 25.685,17.108 25.473,16.931 C25.323,16.804 25.342,16.712 25.473,16.589 C25.673,16.408 25.850,16.208 26.050,16.031 C26.177,15.919 26.177,15.846 26.062,15.742 C25.796,15.504 25.527,15.258 25.273,15.019 C25.162,14.904 25.084,14.931 24.996,15.030 C24.811,15.227 24.611,15.411 24.446,15.623 C24.311,15.785 24.169,15.881 23.942,15.850 C23.753,15.834 23.569,15.862 23.376,15.866 C23.319,15.873 23.249,15.896 23.219,15.838 C23.195,15.765 23.269,15.746 23.303,15.700 C23.669,15.288 24.027,14.865 24.408,14.457 C24.519,14.342 24.488,14.276 24.396,14.188 C24.100,13.927 23.823,13.672 23.550,13.415 C23.419,13.280 23.319,13.261 23.180,13.419 C22.572,14.103 21.934,14.773 21.334,15.473 C21.088,15.765 20.826,15.950 20.437,15.908 C20.137,15.900 19.837,15.896 19.537,15.896 C19.391,15.896 19.371,15.850 19.449,15.727 C19.560,15.527 19.660,15.327 19.780,15.127 C19.837,15.027 19.810,14.981 19.695,14.981 C19.468,14.981 19.233,14.981 19.002,14.984 C18.852,14.984 18.791,14.957 18.898,14.803 C19.098,14.465 19.287,14.130 19.487,13.799 C19.529,13.718 19.572,13.650 19.660,13.622 C19.829,13.572 19.999,13.522 20.168,13.469 C21.057,13.211 21.949,12.945 22.830,12.680 C22.949,12.641 23.011,12.576 22.976,12.453 C22.865,12.068 22.765,11.691 22.657,11.306 C22.622,11.168 22.546,11.122 22.388,11.168 C22.064,11.245 21.737,11.341 21.407,11.414 C21.176,11.460 20.972,11.583 20.722,11.557 L20.726,11.549 L20.722,11.549 C20.922,11.118 21.114,10.683 21.668,10.602 C21.845,10.572 22.014,10.495 22.195,10.445 C22.311,10.410 22.361,10.341 22.326,10.210 C22.226,9.837 22.126,9.456 22.034,9.083 C22.007,8.998 21.964,8.944 21.861,8.983 C21.619,9.068 21.364,9.083 21.138,9.194 C20.945,9.260 20.853,9.179 20.807,8.990 C20.741,8.767 20.668,8.556 20.599,8.333 C20.537,8.136 20.418,8.044 20.195,8.125 C19.914,8.236 19.618,8.325 19.318,8.421 C19.137,8.479 19.048,8.560 19.168,8.763 C19.229,8.883 19.268,9.029 19.287,9.168 C19.321,9.399 19.510,9.633 19.433,9.852 C19.341,10.168 19.168,10.464 18.948,10.779 C18.752,10.179 18.564,9.621 18.391,9.064 C18.329,8.864 18.240,8.798 18.048,8.867 C17.706,9.006 17.364,9.121 17.021,9.252 C16.890,9.298 16.859,9.387 16.898,9.521 C17.221,10.487 17.537,11.464 17.863,12.434 C17.906,12.580 17.933,12.691 17.841,12.830 C17.702,13.061 17.586,13.303 17.452,13.542 C17.360,13.726 17.259,13.911 17.148,14.111 C16.979,13.838 16.829,13.607 16.686,13.380 C16.540,13.161 16.502,13.165 16.367,13.388 C16.267,13.580 16.179,13.792 16.013,13.973 C15.832,13.665 15.690,13.369 15.501,13.111 C15.305,12.846 15.305,12.615 15.394,12.299 C15.663,11.422 15.859,10.518 16.117,9.633 C16.194,9.383 16.109,9.314 15.909,9.260 C15.547,9.156 15.186,9.052 14.832,8.944 C14.709,8.906 14.671,8.964 14.651,9.052 C14.574,9.364 14.497,9.652 14.405,9.960 C14.328,10.229 14.244,10.502 14.143,10.814 C13.982,10.564 13.855,10.349 13.701,10.149 C13.582,9.998 13.582,9.852 13.628,9.687 C13.701,9.449 13.763,9.202 13.839,8.983 C13.909,8.775 13.855,8.675 13.636,8.625 C13.285,8.556 12.947,8.456 12.608,8.340 C12.431,8.286 12.362,8.344 12.324,8.510 C12.262,8.733 12.178,8.948 12.131,9.171 C12.100,9.367 12.000,9.371 11.847,9.333 C11.631,9.268 11.412,9.218 11.204,9.164 C11.104,9.133 11.035,9.137 11.004,9.260 C10.919,9.641 10.823,10.022 10.731,10.410 C10.700,10.545 10.762,10.595 10.881,10.618 C11.204,10.695 11.512,10.787 11.823,10.872 C11.904,10.899 12.000,10.903 12.050,10.983 C12.204,11.237 12.355,11.491 12.512,11.753 C12.416,11.783 12.347,11.745 12.281,11.730 C11.777,11.595 11.277,11.460 10.766,11.322 C10.612,11.280 10.512,11.306 10.470,11.491 C10.392,11.849 10.308,12.214 10.208,12.576 C10.161,12.742 10.215,12.807 10.377,12.842 C11.408,13.099 12.439,13.403 13.489,13.607 C13.582,13.630 13.662,13.665 13.701,13.742 C13.939,14.153 14.163,14.554 14.412,14.957 C14.482,15.065 14.444,15.100 14.340,15.100 C14.085,15.100 13.832,15.092 13.570,15.100 C13.351,15.108 13.320,15.173 13.436,15.369 C13.566,15.588 13.701,15.812 13.836,16.038 C13.378,16.038 12.954,16.031 12.531,16.042 C12.385,16.046 12.297,15.988 12.189,15.881 C11.458,15.119 10.700,14.361 9.958,13.600 C9.854,13.480 9.766,13.465 9.642,13.588 C9.400,13.823 9.130,14.057 8.877,14.300 C8.631,14.519 8.642,14.565 8.873,14.796 C9.211,15.127 9.554,15.473 9.896,15.827 C9.927,15.850 9.985,15.877 9.962,15.934 C9.942,15.988 9.884,15.977 9.842,15.977 C9.631,15.988 9.423,15.977 9.219,15.988 C9.062,16.000 8.927,15.950 8.811,15.834 C8.603,15.623 8.365,15.427 8.154,15.211 C8.050,15.108 7.980,15.104 7.869,15.196 C7.596,15.438 7.319,15.677 7.042,15.912 C6.922,16.012 7.007,16.065 7.073,16.135 C7.307,16.373 7.542,16.608 7.784,16.839 C7.911,16.943 7.911,17.016 7.792,17.116 C7.542,17.350 7.299,17.597 7.045,17.827 C6.938,17.923 6.922,18.008 7.053,18.112 C7.307,18.320 7.572,18.512 7.803,18.735 C7.977,18.897 8.088,18.847 8.204,18.712 C8.426,18.481 8.642,18.254 8.865,18.027 C8.915,17.974 8.938,17.904 9.030,17.904 C9.335,17.904 9.638,17.904 9.992,17.904 C9.554,18.358 9.158,18.778 8.746,19.189 C8.603,19.324 8.603,19.420 8.761,19.543 C9.050,19.762 9.319,19.997 9.585,20.247 C9.738,20.390 9.850,20.363 9.985,20.213 C10.712,19.455 11.447,18.701 12.178,17.951 C12.224,17.897 12.270,17.847 12.355,17.847 C12.858,17.847 13.347,17.839 13.855,17.839 C13.878,17.839 13.917,17.847 13.917,17.885 C13.789,18.120 13.670,18.347 13.547,18.581 C13.482,18.716 13.485,18.828 13.690,18.816 C13.870,18.816 14.055,18.858 14.236,18.847 C14.428,18.816 14.440,18.870 14.355,19.032 C14.163,19.366 13.986,19.712 13.801,20.051 C13.751,20.159 13.682,20.201 13.566,20.228 C13.097,20.344 12.628,20.463 12.154,20.574 C11.627,20.705 11.093,20.836 10.562,20.971 C10.446,20.997 10.293,21.021 10.331,21.209 C10.435,21.632 10.535,22.052 10.646,22.459 C10.670,22.594 10.743,22.594 10.850,22.563 C11.077,22.494 11.308,22.440 11.543,22.371 C11.893,22.286 12.239,22.205 12.658,22.090 C12.474,22.421 12.331,22.679 12.178,22.936 C12.131,23.017 12.050,23.037 11.978,23.040 C11.651,23.075 11.358,23.202 11.050,23.267 C10.897,23.290 10.854,23.371 10.897,23.517 C10.997,23.887 11.089,24.244 11.170,24.606 C11.208,24.756 11.289,24.787 11.427,24.737 C11.693,24.660 11.962,24.606 12.224,24.517 C12.397,24.468 12.451,24.529 12.485,24.660 C12.539,24.902 12.616,25.141 12.662,25.375 C12.697,25.518 12.758,25.560 12.904,25.518 C13.259,25.414 13.612,25.295 13.974,25.206 " class="cls-2"/>
  </g>
</svg>
